X:1
T:Puis que malheur
T:Puis que malheur
T:Jacob Clemens non Papa
C:Jacob Clemens non Papa
%%score [ 1 2 [ 3 4 ] ]
L:1/8
Q:1/4=120
M:2/2
K:F
V:1 treble nm="Superius" snm="S"
V:2 treble nm="Altus" snm="A"
V:3 treble-8 nm="Tenor 1" snm="T 1"
V:4 treble-8 nm="Tenor 2" snm="T 2"
V:1
 z4 d4 | d2 d2 f2 d2 | f2 e2 d3 c | BA B4 d2 | c2 B2 c2 d2- | d2 c2 d2 d2- | d2 c2 B2 A2 | %7
w: Puis|que mal- heur me|tient _ _ _|_ _ _ _||* ri- gueur, et|_ seul- le sca-|
 G2 F2 G2 B2 | A2 GF G4 | F4 z4 | z8 | z2 d2 d2 d2 | c3 B A2 G2 | A4 z2 B2 | B2 B2 A3 G | %15
w: vez mon in- di-|gen- * * *|ce,||pour don- ner|or- dre'à ma lan-|gueur, pour|don- ner or- dre'à|
 F2 G2 F4 | z2 G2 G4 | G4 F2 F2 | G2 B3 A G2- | G2 F2 G4 | z4 B4- | B4 A2 f2- | fe d4 c2 | d4 z4 | %24
w: ma lan- gueur,|se- cou-|rez moy en|di- li- * gen-|* * ce,|hel-|* las, hel-||las,|
 B4 B2 A2 | G2 _E2 F4 | F2 d2 d2 d2 | f3 e/d/ c2 d2- | dc B4 A2 |"^b" B2 d2 d2 e2 | d2 c2 B2 A2 | %31
w: ay- ez in-|tel- li- gen-|ce du mal qu'on|a en _ a- mi-|* * * ty-|é, ung pa- ti-|ent prent al- le-|
 B4 A4 | z4 d4 | c3 B A2 G2 | F2 D2 E4 | D4 z4 | z4 z2 d2- | d2 c4 B2- | B2 A2 F2 G2 | %39
w: gean- ce,|ung|pa- ti- ent prent|al- le- gean-|ce,|quant|_ s'a- my-|* e prent _|
 A2 B2 AG G2- |"^#" G2 F2 G4- | G8 |] %42
w: _ _ à _ pi-|* ty- é.|_|
V:2
 G4 G2 G2 | B2 G2 A2 B2 | A4 z2 D2 | G2 G2 F2 B2 | A2 G2 A4- | A4 z2 A2- | A2 A2 F2 F2 | %7
w: Puis que mal-|heur me tient ri-|gueur, puis-|que mal- heur me|tient ri- gueur,|_ et|_ seul- le sca-|
 D3 C D2 E2- | ED D4 C2 | D2 A4 A2 | B2 A4 G2 | A2 B2 A2 A2- | AG F2 E2 D2 | E4 z2 G2 | %14
w: vez mon in- di-|* * gen- *|ce, pour don-|ner or- dre'à|ma lan- gueur, à-|* * ma lan- *|gueur, pour|
 F2 F2 F3 E | D2 C2 D4 | z2 D2 D4 | G,4 A,2 D2 | E2 D2 B,2 C2 | D8 | z4 G4- | G4 F4 | A8 | F4 F4 | %24
w: don- ner or- dreà|ma lan- gueur,|se- cou-|rez moy en|di- li- gen- *|ce,|hel-|* las,|hel-|las, ay-|
"^b" G2 G2 F3 E | D2 CB, C4 | D2 F2 F2 G2 | A6 A2 |"^b" D2 E2 F4 | D2 B2 B2 B2 |"^b" A3 G F2 E2 | %31
w: ez in- tel- *|* li- * gen-|ce du mal qu'on|a en|a- mi- ty-|é, ung pa- ti-|ent prent al- le-|
 F2 G2 E2 E2 | F2 G2 A4- | A2 A2 c2 B2 | A2 G2 A4- | A4 A4- | A2 G2 A2 A2 | A3 G F2 G2 | D2 F4 E2 | %39
w: gean- * ce, ung|pa- ti- ent|_ prent al- le-|gean- * ce,|_ quant|_ s'a- my- e|prent _ _ _|_ _ _|
 D2 B,2 _E2 C2 | D4 D4- | D8 |] %42
w: * * à pi-|ty- é.|_|
V:3
 z8 | z8 | z8 | d4 d2 d2 | f2 d2 f4 | e4 d2 f2- | f2 e2 d2 c2 | B2 A2 B2 B2 | c2 d2 G4 | %9
w: |||Puis que mal-|heur me tient|ri- gueur, et|_ seul- le sca-|vez mon in- di-|gen- * *|
 A4 z2 f2- | f2 f2 f2 e2 | f2 g4 f2- | f2 ed c2 d2- | d2 c2 d2 d2 | d2 d2 c3 B | A2 G2 A4 | %16
w: ce, pour|_ don- ner or-|dre'à ma lan-||* * gueur, pour|don- ner or- dre'à|ma lan- gueur,|
 z2 G2 B4 | c4 d2 A2 | c2 F2 G4 | A4 G4 | z4 d4- | d4 d4 | f4 e4 | z2 d2 d2 c2 |"^b" d2 e2 d2 c2- | %25
w: se- cou-|rez moy en|di- li- gen-|* ce,|hel-|* las,|hel- las,|ay- ez in-|tel- li- gen- *|
 cB B4 A2 | B4 z2 B2 | c2 d2 e2 f2 | B4 c4 | B4 z2 g2 |"^b" f3 e d2 c2 | B2 G2 A3 B | c2 d2 f4 | %33
w: |ce du|mal qu'on a en|a- mi-|tyé, ung|pa- ti- ent prent|al- le- gean- *|ce ung- pa-|
 e2 f3 e d2 | c2 d4 c2 | d2 f4 e2 | f2 d2 e2 f2 | e4 d4 | z2 d4 c2 | A2 d2 cB AG | A4 G4- | G8 |] %42
w: ti- ent prent al-|le- gean- *|ce, quant s'a-|my- e prent à|pi- tyé,|prent _|_ _ à _ pi- *|ty- é.|_|
V:4
 z8 | z8 | z4 G4 | G2 G2 B2 G2 | A2 B2 A4- | A4 z2 D2 | A4 B2 F2 | G2 D2 G2 G2 | F2 ED E4 | D4 d4 | %10
w: ||Puis|que mal- heur me|tient ri- gueur,|_ et|seul- le sca-|vez mon in- di-|gen- * * *|ce, pour|
 d2 d2 c3 B | A2 G2 d4 | A4 A2 B2 | A4 z2 G2 | B2 B2 F3 G | D2 E2 D4 | z2 G2 G4 | E4 D2 D2 | %18
w: don- ner or- dr'à|ma lan- gueur,|à ma lan-|gueur, pour|don- ner or- dre'à|ma lan- gueur,|se- cou-|rez moy en|
 C2 D2 E4 | D4 G4 | z4 G4- | G4 D4 | d4 A4 | z2 B2 B2 A2 | G2 _E2 F4 | G4 F4 | z2 B2 B2 G2 | %27
w: di- li- gen-|* ce,|hel-|* las,|hel- las,|ay- ez in-|tel- li- gen-|* ce|du mal qu'on|
 F2 D2 A2 D2 | G4 F4 | G8 | z8 | z2 d2 c3 B | A2 G2 F2 D2 | A4 F2 G2 | A2 B2 A4 | z2 d4 c2 | %36
w: a en a- *|mi- ty-|é,||ung pa- ti-|ent prent al- le-|gean- * *|* * ce,|quant s'a-|
 A2 B2 c2 d2 | A4 z2 G2- | G2 F2 D2 E2 |"^b" F2 G2 C2 E2 | D4 G4- | G8 |] %42
w: my' prent à pi-|tyé, quant|_ s'a- my- e|prent _ à pi-|ty- é.|_|

